X: 133
M: 3/4
L: 1/4
K: G
{B}A2 (d/c/) | B G A | (B> c) (A/d/) | B G2 |
{B}A2 (d/c/) | B G A | B2 A | B G2 | G2 |]
g | e e g | e e g | e e g |
(e d) B | d> e d | d> e f | g f e |
{e}d2 B | c> B c | d e f | g d B |
{B}A2 f | g G A | B2 (A/d/) | B G2 | G2 |]
K:

